icons/svg/magnet-on.svg

﻿<?xml version="1.0" encoding="utf-8"?>
<!DOCTYPE svg PUBLIC "-//W3C//DTD SVG 1.1//EN" "http://www.w3.org/Graphics/SVG/1.1/DTD/svg11.dtd">
<svg xmlns="http://www.w3.org/2000/svg" xmlns:xlink="http://www.w3.org/1999/xlink" version="1.1" baseProfile="full" width="24" height="24" viewBox="0 0 24.00 24.00" enable-background="new 0 0 24.00 24.00" xml:space="preserve">
	<path fill="#000000" fill-opacity="1" stroke-width="0.2" stroke-linejoin="round" d="M 3,7L 3,13C 3,17.971 7.029,22 12,22C 16.971,22 21,17.971 21,13L 21,7L 17,7L 17,13C 17,15.761 14.761,18 12,18C 9.239,18 7,15.761 7,13L 7,7M 17,5L 21,5L 21,2L 17,2M 3,5L 7,5L 7,2L 3,2M 13,1.5L 9,9L 11,9L 11,14.5L 15,7L 13,7L 13,1.5 Z "/>
</svg>

<svg xmlns="http://www.w3.org/2000/svg" version="1.1" baseProfile="full" width="24" height="24" viewBox="0 0 24.00 24.00" xml:space="preserve"><path fill="#000" fill-opacity="1" stroke-width=".2" stroke-linejoin="round" d="M3 7v6c0 4.97 4.03 9 9 9s9-4.03 9-9V7h-4v6c0 2.76-2.24 5-5 5s-5-2.24-5-5V7m10-2h4V2h-4M3 5h4V2H3m10-.5L9 9h2v5.5L15 7h-2V1.5z"/></svg>
